!!!COM: Britten, (Edward) Benjamin
!!!OTL: Festival Te Deum for Trumpet, Chorus and Organ, op. 32
!!!OMV:
!!!example: 809
!!!work: Bri-28
!!!OMD-full: Andante con moto
!!!OMD: [Andante con moto]
**kern	**dynam	**kern	**dynam	**kern	**dynam	**kern	**text	**dynam	**kern	**text	**dynam	**kern	**text	**dynam	**kern	**text	**dynam
*grp:A	*grp:A	*grp:A	*grp:A	*grp:A	*grp:A	*grp:B	*grp:B	*grp:B	*grp:B	*grp:B	*grp:B	*grp:B	*grp:B	*grp:B	*grp:B	*grp:B	*grp:B
*I"Pedals	*	*I"	*	*I"Organ	*	*I"Basses	*	*	*I"Tenors	*	*	*I"Altos	*	*	*I"Sopranos	*	*
*I'Ped.	*	*I	*	*I'Org.	*	*I'B.	*	*	*I'T.	*	*	*I'A.	*	*	*I'S.	*	*
*ICklav	*	*ICklav	*	*ICklav	*	*ICvox	*	*	*ICvox	*	*	*ICvox	*	*	*ICvox	*	*
*Iorgan	*	*Iorgan	*	*Iorgan	*	*Ibass	*	*	*Itenor	*	*	*Ialto	*	*	*Isoprn	*	*
*clefF4	*	*clefF4	*	*clefG2	*	*clefF4	*	*	*clefG2	*	*	*clefG2	*	*	*clefG2	*	*
*	*	*	*	*	*	*	*	*	*ITrd7c12	*	*	*	*	*	*	*	*
*k[f#c#g#d#]	*	*k[f#c#g#d#]	*	*k[f#c#g#d#]	*	*k[f#c#g#d#]	*	*	*k[f#c#g#d#]	*	*	*k[f#c#g#d#]	*	*	*k[f#c#g#d#]	*	*
*E:	*	*E:	*	*E:	*	*E:	*	*	*E:	*	*	*E:	*	*	*E:	*	*
*M3/4	*	*M3/4	*	*M3/4	*	*M7/8	*	*	*M7/8	*	*	*M7/8	*	*	*M7/8	*	*
!	!	!	!	!	!	!	!	!LO:DY:t=%s cresc.	!	!	!LO:DY:t=%s cresc.	!	!	!LO:DY:t=%s cresc.	!	!	!LO:DY:t=%s cresc.
2ryy	.	2ryy	.	2ryy	.	8ryy	4ryy	4ryy	8ryy	4ryy	4ryy	8ryy	4ryy	4ryy	8ryy	4ryy	4ryy
.	.	.	.	.	.	8ryy	.	.	8ryy	.	.	8ryy	.	.	8ryy	.	.
.	.	.	.	.	.	8ryy	.	.	8ryy	.	.	8ryy	.	.	8ryy	.	.
.	.	.	.	.	.	8ryy	.	.	8ryy	.	.	8ryy	.	.	8ryy	.	.
=	=	=	=	=	=	=-	=-	=-	=-	=-	=-	=-	=-	=-	=-	=-	=-
.	.	(16qqE/LL	.	((((16qqbb/LL	.	.	.	.	.	.	.	.	.	.	.	.	.
.	.	16qqF#X/JJ	.	16qaa#X/JJ	.	.	.	.	.	.	.	.	.	.	.	.	.
!	!LO:DY:ed=brack	!	!	!	!LO:DY:ed=brack	!	!	!	!	!	!	!	!	!	!	!	!
(((2.EE	f	2.E 2.G# 2.B)	.	2.ee 2.gg# 2.bb)	f	4.ryy	4ryy	.	4.ryy	4ryy	.	4.ryy	4ryy	.	4.ryy	4ryy	.
=-	=-	=-	=-	=-	=-	=	=	=	=	=	=	=	=	=	=	=	=
.	.	.	.	.	.	8ryy	4ryy	4ryy	8ryy	4ryy	4ryy	8ryy	4ryy	4ryy	8ryy	4ryy	4ryy
.	.	.	.	.	.	8ryy	.	.	8ryy	.	.	8ryy	.	.	8ryy	.	.
.	.	.	.	.	.	8ryy	.	.	8ryy	.	.	8ryy	.	.	8ryy	.	.
=	=	=	=	=	=	=-	=-	=-	=-	=-	=-	=-	=-	=-	=-	=-	=-
.	.	(16qqE/LL	.	(16qqbb/LL	.	.	.	.	.	.	.	.	.	.	.	.	.
.	.	16qqF#/JJ	.	16qqaa#X/JJ	.	.	.	.	.	.	.	.	.	.	.	.	.
2.EE	.	2.E 2.G# 2.B)	.	2.ee 2.gg# 2.bb)	.	8ryy	.	.	8ryy	.	.	8ryy	.	.	8ryy	.	.
.	.	.	.	.	.	4.ryy	4ryy	4ryy	4.ryy	4ryy	4ryy	4.ryy	4ryy	4ryy	4.ryy	4ryy	4ryy
=-	=-	=-	=-	=-	=-	=	=	=	=	=	=	=	=	=	=	=	=
.	.	.	.	.	.	8ryy	4ryy	4ryy	8ryy	4ryy	4ryy	8ryy	4ryy	4ryy	8ryy	4ryy	4ryy
.	.	.	.	.	.	8ryy	.	.	8ryy	.	.	8ryy	.	.	8ryy	.	.
=	=	=	=	=	=	=-	=-	=-	=-	=-	=-	=-	=-	=-	=-	=-	=-
.	.	(16qqE/LL	.	(16qqbb/LL	.	.	.	.	.	.	.	.	.	.	.	.	.
.	.	16qqF#/JJ	.	16qqaa#X/JJ	.	.	.	.	.	.	.	.	.	.	.	.	.
2.EE	.	2.E 2.G# 2.B)	.	2.ee 2.gg# 2.bb)	.	8ryy	.	.	8ryy	.	.	8ryy	.	.	8ryy	.	.
.	.	.	.	.	.	8ryy	.	.	8ryy	.	.	8ryy	.	.	8ryy	.	.
.	.	.	.	.	.	4.ryy	4ryy	4ryy	4.ryy	4ryy	4ryy	4.ryy	4ryy	4ryy	4.ryy	4ryy	4ryy
=-	=-	=-	=-	=-	=-	=	=	=	=	=	=	=	=	=	=	=	=
*	*	*	*	*	*	*M3/4	*	*	*M3/4	*	*	*M3/4	*	*	*M3/4	*	*
.	.	.	.	.	.	4ryy	4ryy	4ryy	4ryy	4ryy	4ryy	4ryy	4ryy	4ryy	4ryy	4ryy	4ryy
=	=	=	=	=	=	=-	=-	=-	=-	=-	=-	=-	=-	=-	=-	=-	=-
.	.	(16qqE/LL	.	(16qqbb/LL	.	.	.	.	.	.	.	.	.	.	.	.	.
.	.	16qqF#/JJ	.	16qqaa#X/JJ	.	.	.	.	.	.	.	.	.	.	.	.	.
2.EE	.	2.E 2.G# 2.B)	.	2.ee 2.gg# 2.bb)	<	.	.	.	.	.	.	.	.	.	.	.	.
.	.	.	.	.	.	4ryy	4ryy	.	4ryy	4ryy	.	4ryy	4ryy	.	4ryy	4ryy	.
.	.	.	.	.	[[	4ryy	4ryy	.	4ryy	4ryy	.	4ryy	4ryy	.	4ryy	4ryy	.
=-	=-	=-	=-	=-	=-	=	=	=	=	=	=	=	=	=	=	=	=
*	*	*	*	*	*	*M11/8	*	*	*M11/8	*	*	*M11/8	*	*	*M11/8	*	*
.	.	.	.	.	.	4.ryy	4ryy	.	4.ryy	4ryy	.	4.ryy	4ryy	.	4.ryy	4ryy	.
=	=	=	=	=	=	=-	=-	=-	=-	=-	=-	=-	=-	=-	=-	=-	=-
.	.	(16qqEn/LL	.	(16qqcccn/LL	.	.	.	.	.	.	.	.	.	.	.	.	.
!	!	!	!	!	!	!	!	!	!	!	!	!	!	!	!	!	!
.	.	16qqF#X/JJ	.	16qqbb-X/JJ	.	.	.	.	.	.	.	.	.	.	.	.	.
2.EE	.	2.E 2.A-X 2.cn)	.	2.ee-X 2.aa-X 2.ccc)	ff	.	.	.	.	.	.	.	.	.	.	.	.
!	!	!	!	!	!LO:HP:t=%s subito	!	!	!	!	!	!	!	!	!	!	!	!
.	.	.	.	.	>	8ryy	4ryy	.	8ryy	4ryy	.	8ryy	4ryy	.	8ryy	4ryy	.
.	.	.	.	.	.	4.ryy	4ryy	4ryy	4.ryy	4ryy	4ryy	4.ryy	4ryy	4ryy	4.ryy	4ryy	4ryy
=	=	=	=	=	=	=-	=-	=-	=-	=-	=-	=-	=-	=-	=-	=-	=-
.	.	(16qqEn/LL	.	(16qqcccn/LL	.	.	.	.	.	.	.	.	.	.	.	.	.
.	.	16qqF#X/JJ	.	16qqbb-X/JJ	.	.	.	.	.	.	.	.	.	.	.	.	.
2.EEi	.	2.E 2.A-X 2.cn)	.	2.ee-X 2.aa-X 2.ccc)	>	4ryy	.	4ryy	4ryy	.	4ryy	4ryy	.	4ryy	4ryy	.	4ryy
.	.	.	.	.	]]	4ryy	.	.	4ryy	.	.	4ryy	.	.	4ryy	.	.
=-	=-	=-	=-	=-	=-	=	=	=	=	=	=	=	=	=	=	=	=
*	*	*	*	*	*	*M7/8	*	*	*M7/8	*	*	*M7/8	*	*	*M7/8	*	*
.	.	.	.	.	.	8ryy	4ryy	4ryy	8ryy	4ryy	4ryy	8ryy	4ryy	4ryy	8ryy	4ryy	4ryy
.	.	.	.	.	.	8ryy	4ryy	.	8ryy	4ryy	.	8ryy	4ryy	.	8ryy	4ryy	.
=	=	=	=	=	=	=-	=-	=-	=-	=-	=-	=-	=-	=-	=-	=-	=-
.	.	(16qqEn/LL	.	(16qqcccn/LL	.	.	.	.	.	.	.	.	.	.	.	.	.
.	.	16qqF#X/JJ	.	16qqbb-X/JJ	.	.	.	.	.	.	.	.	.	.	.	.	.
2.EEi	.	2.E 2.A-X 2.cn)	.	2.ee-X 2.aa-X 2.ccc)	ppp	8ryy	4ryy	.	8ryy	4ryy	.	8ryy	4ryy	.	8ryy	4ryy	.
.	.	.	.	.	.	8ryy	4ryy	.	8ryy	4ryy	.	8ryy	4ryy	.	8ryy	4ryy	.
.	.	.	.	.	.	8ryy	4ryy	.	8ryy	4ryy	.	8ryy	4ryy	.	8ryy	4ryy	.
.	.	.	.	.	.	8ryy	4ryy	.	8ryy	4ryy	.	8ryy	4ryy	.	8ryy	4ryy	.
.	.	.	.	.	.	8ryy	4ryy	.	8ryy	4ryy	.	8ryy	4ryy	.	8ryy	4ryy	.
=-	=-	=-	=-	=-	=-	=	=	=	=	=	=	=	=	=	=	=	=
*	*	*	*	*	*	*M5/8	*	*	*M5/8	*	*	*M5/8	*	*	*M5/8	*	*
.	.	.	.	.	.	8ryy	4ryy	.	8ryy	4ryy	.	8ryy	4ryy	.	8ryy	4ryy	.
=	=	=	=	=	=	=-	=-	=-	=-	=-	=-	=-	=-	=-	=-	=-	=-
.	.	(16qqEn/LL	.	(16qqcccn/LL	.	.	.	.	.	.	.	.	.	.	.	.	.
.	.	16qqF#X/JJ	.	16qqbb-X/JJ	.	.	.	.	.	.	.	.	.	.	.	.	.
2.EEi	.	2.E 2.A-X 2.cn)	.	2.ee-X 2.aa-X 2.ccc)	.	8ryy	4ryy	.	8ryy	4ryy	.	8ryy	4ryy	.	8ryy	4ryy	.
.	.	.	.	.	.	8ryy	4ryy	.	8ryy	4ryy	.	8ryy	4ryy	.	8ryy	4ryy	.
.	.	.	.	.	.	8ryy	4ryy	.	8ryy	4ryy	.	8ryy	4ryy	.	8ryy	4ryy	.
.	.	.	.	.	.	8ryy	4ryy	.	8ryy	4ryy	.	8ryy	4ryy	.	8ryy	4ryy	.
=-	=-	=-	=-	=-	=-	=	=	=	=	=	=	=	=	=	=	=	=
*	*	*	*	*	*	*M2/4	*	*	*M2/4	*	*	*M2/4	*	*	*M2/4	*	*
.	.	.	.	.	.	4ryy	4ryy	4ryy	4ryy	4ryy	4ryy	4ryy	4ryy	4ryy	4ryy	4ryy	4ryy
=	=	=	=	=	=	=-	=-	=-	=-	=-	=-	=-	=-	=-	=-	=-	=-
.	.	(16qqEn/LL	.	(16qqcccn/LL	.	.	.	.	.	.	.	.	.	.	.	.	.
.	.	16qqF#X/JJ	.	16qqdddn/JJ	.	.	.	.	.	.	.	.	.	.	.	.	.
2.CCn	.	2.E 2.Gn 2.cn)	.	2.een 2.ggn 2.ccc)	.	4ryy	4ryy	4ryy	4ryy	4ryy	4ryy	4ryy	4ryy	4ryy	4ryy	4ryy	4ryy
=-	=-	=-	=-	=-	=-	=	=	=	=	=	=	=	=	=	=	=	=
.	.	.	.	.	.	2ryy	.	.	2ryy	.	.	2ryy	.	.	2ryy	.	.
.	.	.	.	.	.	.	.	.	.	.	.	.	.	.	.	.	.
=	=	=	=	=	=	=	=	=	=	=	=	=	=	=	=	=	=
*-	*-	*-	*-	*-	*-	*-	*-	*-	*-	*-	*-	*-	*-	*-	*-	*-	*-
!!!system-decoration: [(s1,s2,s3,s4)][({(s5,s6)})]s7,s8
!!!RDF**kern: i = editorial accidental, paren
!!!RDF**dynam: > = dim.
!!!CDT: 1913/11/22-1976/12/04
!!!CBL: Lowestoft, England
!!!CDL: Aldeburgh, England
!!!CNT: English
!!!AGN: Vocal; Choral
!!!MCN: Gale, J., J.
!!!MDT: 1945/04/24
!!!MGN: Choir of St. Mark’s
!!!MLC: Swindon, United Kingdom
!!!MPD: 1945
!!!MPN: Curnow, Gustavos; Titcombe, Peter
!!!ODT: 1944
!!!PDT: 1945
!!!excerpt-start-measure: 22
!!!excerpt-end-measure: 30
!!!excerpt-start-time: 0:55
!!!excerpt-end-time: 1:26
!!!excerpt-duration-sec: 31
!!!excerpt-time-signature: 7/8;3/4
!!!excerpt-tempo-beat: [eighth]
!!!excerpt-tempo-rate: [144]
!!!excerpt-meter-type: polymetric
!!!excerpt-beat-group: G3
!!!excerpt-beat-subgroup: G3,G2;G2
!!!experiment: 1
!!!EEV: 2021/06/18
!!!ONB: Converted from MusicXML on 2020/07/28
